!! 00033] TT[TB
!!    Hubei minge xuan
!! Zh. Ch. M-2850, M 82/5699), Peking: LP 33867/868)
!!!OTL: Pan hong jun
!!!ARE: Asia, China,ÿHubei, Lichuan
!! Ethnic Group: Han
!! I, 420
!!!SCT: C1016
!!!YEM: Copyright 1995, estate of Helmut Schaffrath.
**kern
*ICvox
*Ivox
*M2/4
*k[]
*C:
{2dd}
=1
{16dd
16dd
16dd
16ee
8cc
8dd
=2
8dd
8ee
8cc
8dd}
=3
{16dd
16dd
16dd
16ee
16dd
16ee
16dd
16cc
=4
4.a
8cc}
=5
{16dd
16dd
16dd
16ee
16dd
16ee
16dd
16cc
=6
4.a
8cc}
=7
{8cc
16dd
16cc
8a
8cc
=8
16cc
16a
16g
16a
4cc}
=9
{8cc
16dd
16cc
8a
16cc
16a
=10
2dd}
=11
{8.cc
16a
16a
16cc
8a
=12
8.g
16cc
4a}
=13
{16dd
16dd
16dd
16ee
8cc
8dd
=14
8dd
16cc
16a
4g}
=15
{16dd
16dd
16dd
16ee
8cc
8dd
=16
8.ee
16cc
16dd
16cc
8a}
=17
{16a
16a
16a
16a
8g
8a
=18
8cc
4dd
8a
=19
2g}
=20
{2dd}
=21
{8cc
16a
16a
8cc
8a
=22
8cc
4a
8r}
=23
{8cc
16a
16cc
8dd
8cc
=24
8a
4g
8r}
=25
{16dd
16dd
16dd
16ee
8cc
8dd
=26
8.ee
16cc
16dd
16cc
8a}
=27
{16dd
16dd
16dd
16ee
16dd
16ee
16dd
16cc
=28
4.a
8cc}
=29
{16dd
16dd
16dd
16ee
16dd
16ee
16dd
16cc
=30
4.a
8cc}
=31
{8cc
16dd
16cc
8a
8cc
=32
16cc
16a
16g
16a
4cc}
=33
{8cc
16a
16cc
8dd
16cc
16a
=34
2dd}
==
!!!AGN: Shange, Lianbaju. Geming lishi minge
!! Plattenhuelle kopiert.
!!    Vereinzelt Verzierungen.
!!!ONB: ESAC (Essen Associative Code) Database: CHINA
!!!AMT: simple duple
!!!AIN: vox
!!!EED: Helmut Schaffrath
!!!EEV: 1.0
*-
